X:309
T:The Happy Captive
M:2/4
L:1/16
C:Thompson, 1777
B:Thompson's Compleat Collection of 200 Favourite Country Dances Volume IV.
S:Colin Hume's website,  colinhume.com  - chords can also be printed below the stave.
Q:1/4=72
K:A
P:A
|: "A"A,CEA "E"{A}G2>F2 | "E7"EGBd "A"{d}c2>B2 | "A"cdef eagf | "E7"edcB "A"c2A2 |
"A"A,CEA "E"{A}G2>F2 | "E7"EGBd "A"{d}c2>B2 | "A"cdef eagf | "E7"edcB "A"A4 :|
P:B
|: "A"cdef eaga | "E7"edcB "A"c2A2 | "A"cdec "D"fedc | "Bm"dcBA "E7"G2E2 |
"A"cdef eaga | "E"edcB "F#m"c2A2 | "A"cdec "Bm"dcBA | "E7"E2G2 "A"A4 :|

